packages/core/src/svgs/omax.svg

<svg width="24" height="24" viewBox="0 0 24 24" fill="none" xmlns="http://www.w3.org/2000/svg">
<g clip-path="url(#clip0_31_15349)">
<path d="M0 0H24V24H0V0Z" fill="#F0F3FA"/>
<path d="M5.44281 12.0557C5.30995 10.9585 5.79424 9.59995 6.05138 9.05566L6.72852 9.74995C6.39894 10.5575 6.25822 11.4297 6.31709 12.3L5.44281 12.0557Z" fill="#0A01CC"/>
<path d="M6.04279 9.01709L6.7585 9.74566L6.74993 9.75852C6.42287 10.5622 6.28362 11.43 6.34279 12.2957V12.3342L5.41707 12.0771V12.0557C5.3485 11.5028 5.4385 10.8857 5.57564 10.3414C5.71279 9.79709 5.90136 9.32138 6.02993 9.04709L6.04707 9.01709H6.04279ZM6.05993 9.1028C5.93136 9.37709 5.75564 9.83138 5.62279 10.3542C5.47272 10.9008 5.41906 11.4693 5.46422 12.0342L6.28707 12.2657C6.24422 11.8242 6.2785 10.7657 6.6985 9.75423L6.05564 9.1028H6.05993Z" fill="black"/>
<path d="M18.5572 11.9445C18.6901 13.0416 18.2058 14.4002 17.9486 14.9445L17.2715 14.2502C17.6011 13.4426 17.7418 12.5704 17.6829 11.7002L18.5572 11.9445Z" fill="#1BAF01"/>
<path d="M17.9572 14.987L17.2415 14.2584L17.25 14.2412C17.5771 13.4375 17.7163 12.5698 17.6572 11.7041V11.6655L18.5829 11.9227V11.9441C18.6515 12.497 18.5615 13.1141 18.4243 13.6584C18.3134 14.103 18.1613 14.5363 17.97 14.9527L17.9529 14.987H17.9572ZM17.94 14.9012C18.0686 14.6227 18.2443 14.1684 18.3772 13.6455C18.51 13.1098 18.5957 12.5055 18.5357 11.9655L17.7129 11.7341C17.7557 12.1755 17.7215 13.2341 17.3015 14.2455L17.9443 14.897L17.94 14.9012Z" fill="black"/>
<path d="M5.93136 6.33008H4.63279L10.0928 11.9958L8.09993 14.0658L5.78564 11.6829L3.89136 13.6286L8.09993 17.9444L11.9999 13.9586L14.9656 17.0315L16.3371 17.1387L11.9999 12.6386L8.09993 16.6886L5.14279 13.6244L5.78564 12.9558L8.09993 15.3944L11.4085 11.9958L5.93136 6.33008Z" fill="url(#paint0_linear_31_15349)"/>
<path d="M4.57289 6.2998H5.94432L11.4429 11.9998L8.10003 15.4284L5.78575 12.9941L5.17718 13.6241L8.10003 16.6498L12 12.6041L16.38 17.1555L14.9529 17.0569L11.9957 13.9969L8.10003 17.9827L3.85718 13.6284L5.78575 11.6484L8.10003 14.0269L10.0586 11.9998L4.57289 6.30838V6.2998ZM4.69289 6.35552L10.1272 11.9955L8.10003 14.0998L5.78575 11.7169L3.92575 13.6284L8.10003 17.9098L12 13.9241L14.9786 17.0098L16.2772 17.1041L12 12.6769L8.10003 16.7227L5.10861 13.6241L5.79003 12.9212L8.10432 15.3555L11.37 11.9998L5.92289 6.35552H4.69289Z" fill="black"/>
<path d="M18.0686 17.6699H19.3671L13.9071 12.0042L15.9 9.93424L18.2143 12.3171L20.1086 10.3714L15.9 6.05566L12 10.0414L9.03427 6.96852L7.66284 6.86138L12 11.3614L15.9 7.31138L18.8571 10.3757L18.2143 11.0442L15.9 8.60566L12.5914 12.0042L18.0686 17.6699Z" fill="url(#paint1_linear_31_15349)"/>
<path d="M19.4271 17.6999H18.0556L12.5571 11.9999L15.8999 8.57138L18.2142 11.0057L18.8228 10.3757L15.8999 7.34995L11.9999 11.3957L7.64136 6.87423L9.04707 6.9428L12.0042 10.0028L15.8999 6.01709L20.1428 10.3714L18.2142 12.3514L15.8999 9.9728L13.9414 11.9999L19.4271 17.6914V17.6999ZM19.3071 17.6442L13.8728 12.0042L15.8999 9.89995L18.2142 12.2828L20.0742 10.3714L15.8999 6.08995L11.9999 10.0757L9.02136 6.98995L7.72279 6.89566L11.9999 11.3228L15.8999 7.27709L18.8914 10.3757L18.2099 11.0785L15.8956 8.64423L12.6299 11.9999L18.0771 17.6399H19.3071V17.6442Z" fill="black"/>
<path d="M8.1001 16.6845V17.9445L12.0001 13.9588L14.9787 17.0488L16.3415 17.1345L12.0001 12.6431L8.1001 16.6888V16.6845Z" fill="url(#paint2_linear_31_15349)"/>
<path d="M12.0001 12.6044L16.3801 17.1601L14.9358 17.0315L12.0001 14.0015L8.1001 17.9872V16.6587L12.0001 12.6001V12.6044ZM8.1001 16.7144V17.9058L12.0001 13.9287L15.0215 17.0444L16.3244 17.1558L11.9958 12.6815L8.1001 16.7144Z" fill="black"/>
<path d="M15.9001 7.31566V6.05566L12.0001 10.0414L9.03441 6.96852L7.65869 6.86138L12.0001 11.3614L15.9001 7.31138V7.31566Z" fill="url(#paint3_linear_31_15349)"/>
<path d="M12 11.3957L7.64575 6.87852L9.04718 6.9428L12.0043 10.0028L15.9 6.01709V7.34138L12 11.3957ZM15.9 7.28138V6.08566L12 10.0714L9.02147 6.98566L7.72289 6.89138L12 11.3228L15.9 7.28138Z" fill="black"/>
<path d="M12.1372 18.8272C10.7963 18.841 9.48224 18.4512 8.36572 17.7086L9.03001 17.04C9.94653 17.5874 10.9925 17.8803 12.06 17.8886C13.5814 17.8372 14.4857 17.3315 14.9614 17.04L16.3329 17.13C15.7072 17.7686 14.2072 18.7372 12.1329 18.8272H12.1372Z" fill="#0A01CC"/>
<path d="M9.02572 17.0098L9.04286 17.0183C9.95556 17.5632 10.9971 17.8546 12.06 17.8626C13.082 17.8508 14.0811 17.5588 14.9486 17.0183L16.38 17.1598C15.75 17.7983 14.2157 18.7626 12.1371 18.8526C10.4743 18.9255 8.92286 18.1326 8.35286 17.7298L8.32715 17.7126L9.02572 17.0098ZM15.0429 17.0269C14.1456 17.5836 13.1157 17.8899 12.06 17.9141C11.5371 17.9355 10.2086 17.7898 9.03429 17.0741L8.40429 17.7041C8.98715 18.1112 10.5086 18.8698 12.1329 18.8012C14.1557 18.7155 15.6557 17.7812 16.2986 17.1512L15.0429 17.0269Z" fill="black"/>
<path d="M11.8627 5.17272C13.2036 5.15892 14.5176 5.54865 15.6342 6.29129L14.9699 6.95986C14.0534 6.41249 13.0074 6.11956 11.9399 6.11129C10.4185 6.16272 9.41131 6.69843 8.93988 6.99415L7.69702 6.89129C8.83146 5.83314 10.3121 5.22382 11.8627 5.177V5.17272Z" fill="#1BAF01"/>
<path d="M14.9742 6.99013L14.9571 6.98156C14.0444 6.43674 13.0028 6.14529 11.9399 6.13727C10.4228 6.1887 9.5185 6.69442 9.04279 6.98585L7.64136 6.8787L7.64993 6.85299C8.27993 6.21013 9.78421 5.23727 11.8628 5.14727C13.5256 5.07442 15.0771 5.86727 15.6471 6.27013L15.6728 6.28727L14.9742 6.99013ZM8.95707 6.97728C9.85356 6.41831 10.8837 6.11044 11.9399 6.08585C12.4585 6.06442 13.7914 6.21013 14.9656 6.92585L15.5956 6.29585C14.4892 5.56826 13.1913 5.18634 11.8671 5.1987C10.3265 5.25399 8.85457 5.85033 7.70993 6.88299L8.95279 6.97728H8.95707Z" fill="black"/>
</g>
<defs>
<linearGradient id="paint0_linear_31_15349" x1="6.10279" y1="6.88294" x2="7.5085" y2="14.4344" gradientUnits="userSpaceOnUse">
<stop stop-color="#EB1FF4"/>
<stop offset="1" stop-color="#02D2DF"/>
</linearGradient>
<linearGradient id="paint1_linear_31_15349" x1="13.8814" y1="17.6699" x2="13.8814" y2="11.0314" gradientUnits="userSpaceOnUse">
<stop stop-color="#FB8A07"/>
<stop offset="1" stop-color="#DFDF01"/>
</linearGradient>
<linearGradient id="paint2_linear_31_15349" x1="15.7115" y1="17.0016" x2="8.3101" y2="17.2545" gradientUnits="userSpaceOnUse">
<stop stop-color="#0A02C9"/>
<stop offset="1" stop-color="#02D2DF"/>
</linearGradient>
<linearGradient id="paint3_linear_31_15349" x1="15.9001" y1="6.63852" x2="8.37869" y2="6.93424" gradientUnits="userSpaceOnUse">
<stop stop-color="#E6E101"/>
<stop offset="1" stop-color="#1BAF01"/>
</linearGradient>
<clipPath id="clip0_31_15349">
<rect width="24" height="24" fill="white"/>
</clipPath>
</defs>
</svg>

<svg xmlns="http://www.w3.org/2000/svg" width="24" height="24" fill="none" viewBox="0 0 24 24"><g clip-path="url(#a)"><path fill="#F0F3FA" d="M0 0h24v24H0z"/><path fill="#0A01CC" d="M5.443 12.056c-.133-1.097.351-2.456.608-3l.678.694c-.33.807-.47 1.68-.412 2.55z"/><path fill="#000" d="m6.043 9.017.715.729-.008.013a5.7 5.7 0 0 0-.407 2.537v.038l-.926-.257v-.021c-.069-.553.022-1.17.159-1.715.137-.544.325-1.02.454-1.294l.017-.03zm.017.086a7.4 7.4 0 0 0-.437 1.251 4.9 4.9 0 0 0-.159 1.68l.823.232c-.043-.442-.008-1.5.412-2.512l-.643-.651z"/><path fill="#1BAF01" d="M18.557 11.945c.133 1.097-.351 2.455-.608 3l-.678-.695c.33-.807.47-1.68.412-2.55z"/><path fill="#000" d="m17.957 14.987-.716-.729.009-.017a5.7 5.7 0 0 0 .407-2.537v-.039l.926.258v.021c.069.553-.021 1.17-.159 1.714q-.166.668-.454 1.295l-.017.034zm-.017-.086c.129-.278.304-.733.437-1.255.133-.536.219-1.14.159-1.68l-.823-.232c.043.441.008 1.5-.412 2.512l.643.651z"/><path fill="url(#b)" d="M5.931 6.33H4.633l5.46 5.666-1.993 2.07-2.314-2.383-1.895 1.946L8.1 17.944 12 13.96l2.966 3.073 1.371.107-4.337-4.5-3.9 4.05-2.957-3.065.643-.668L8.1 15.394l3.309-3.398z"/><path fill="#000" d="M4.573 6.3h1.371l5.499 5.7L8.1 15.428l-2.314-2.434-.609.63L8.1 16.65l3.9-4.046 4.38 4.552-1.427-.1-2.957-3.06L8.1 17.984l-4.243-4.355 1.929-1.98L8.1 14.027 10.059 12 4.573 6.308zm.12.056 5.434 5.64L8.1 14.1l-2.314-2.383-1.86 1.911L8.1 17.91l3.9-3.986 2.979 3.086 1.298.094L12 12.677l-3.9 4.046-2.991-3.099.681-.703 2.314 2.435L11.37 12 5.923 6.356z"/><path fill="url(#c)" d="M18.069 17.67h1.298l-5.46-5.666 1.993-2.07 2.314 2.383 1.895-1.946L15.9 6.056 12 10.04 9.034 6.97 7.663 6.86l4.337 4.5 3.9-4.05 2.957 3.065-.643.668L15.9 8.606l-3.309 3.398z"/><path fill="#000" d="M19.427 17.7h-1.371L12.557 12 15.9 8.57l2.314 2.435.609-.63L15.9 7.35 12 11.396 7.64 6.874l1.406.069 2.957 3.06L15.9 6.017l4.243 4.354-1.929 1.98L15.9 9.973 13.94 12l5.486 5.691zm-.12-.056-5.434-5.64L15.9 9.9l2.314 2.383 1.86-1.912L15.9 6.09 12 10.076 9.02 6.99l-1.298-.094L12 11.323l3.9-4.046 2.991 3.099-.681.703-2.314-2.435L12.63 12l5.447 5.64h1.23z"/><path fill="url(#d)" d="M8.1 16.685v1.26l3.9-3.986 2.979 3.09 1.363.085L12 12.644l-3.9 4.045z"/><path fill="#000" d="m12 12.604 4.38 4.556-1.444-.128L12 14.002l-3.9 3.985V16.66L12 12.6zm-3.9 4.11v1.192l3.9-3.977 3.021 3.115 1.303.112-4.328-4.474z"/><path fill="url(#e)" d="M15.9 7.316v-1.26L12 10.04 9.034 6.97 7.66 6.86l4.341 4.5 3.9-4.05z"/><path fill="#000" d="M12 11.396 7.646 6.879l1.401.064 2.957 3.06L15.9 6.017v1.324zm3.9-4.115V6.086L12 10.07 9.021 6.986 7.723 6.89 12 11.323z"/><path fill="#0A01CC" d="M12.137 18.827a6.7 6.7 0 0 1-3.771-1.118l.664-.669a6 6 0 0 0 3.03.849c1.521-.052 2.426-.558 2.901-.849l1.372.09c-.626.639-2.126 1.607-4.2 1.697z"/><path fill="#000" d="m9.026 17.01.017.008a6 6 0 0 0 3.017.845 5.6 5.6 0 0 0 2.889-.845l1.431.142c-.63.638-2.164 1.603-4.243 1.693-1.663.072-3.214-.72-3.784-1.123l-.026-.017zm6.017.017a5.9 5.9 0 0 1-2.983.887c-.523.021-1.851-.124-3.026-.84l-.63.63c.583.407 2.105 1.166 3.729 1.097 2.023-.085 3.523-1.02 4.166-1.65z"/><path fill="#1BAF01" d="M11.863 5.173a6.7 6.7 0 0 1 3.771 1.118l-.664.669a6 6 0 0 0-3.03-.849c-1.521.052-2.529.587-3 .883l-1.243-.103a6.4 6.4 0 0 1 4.166-1.714z"/><path fill="#000" d="m14.974 6.99-.017-.008a6 6 0 0 0-3.017-.845c-1.517.052-2.421.557-2.897.849L7.64 6.879l.009-.026c.63-.643 2.134-1.616 4.213-1.706 1.663-.073 3.214.72 3.784 1.123l.026.017zm-6.017-.013a5.9 5.9 0 0 1 2.983-.891c.519-.022 1.851.124 3.026.84l.63-.63a6.67 6.67 0 0 0-3.729-1.097A6.56 6.56 0 0 0 7.71 6.883l1.243.094z"/></g><defs><linearGradient id="b" x1="6.103" x2="7.508" y1="6.883" y2="14.434" gradientUnits="userSpaceOnUse"><stop stop-color="#EB1FF4"/><stop offset="1" stop-color="#02D2DF"/></linearGradient><linearGradient id="c" x1="13.881" x2="13.881" y1="17.67" y2="11.031" gradientUnits="userSpaceOnUse"><stop stop-color="#FB8A07"/><stop offset="1" stop-color="#DFDF01"/></linearGradient><linearGradient id="d" x1="15.711" x2="8.31" y1="17.002" y2="17.255" gradientUnits="userSpaceOnUse"><stop stop-color="#0A02C9"/><stop offset="1" stop-color="#02D2DF"/></linearGradient><linearGradient id="e" x1="15.9" x2="8.379" y1="6.639" y2="6.934" gradientUnits="userSpaceOnUse"><stop stop-color="#E6E101"/><stop offset="1" stop-color="#1BAF01"/></linearGradient><clipPath id="a"><path fill="#fff" d="M0 0h24v24H0z"/></clipPath></defs></svg>
